X: 9
T: The Geese In The Bog
R: jig
M: 6/8
L: 1/8
K: Amin
B|:cEE GEE|cEE GAB|cEE GED|EAA A2B|
cEE GEE|cEE GAB|cBA GED|EAA A2B:||
|:cde ged|eaa ged|cde ged|eag a3|
cde ged|eaa ged|cBA GED|EAA A2:||


Tune 43	Setting 12466

